website/src/static/charts/alluvialchart.svg

<svg width="144" height="80" viewBox="0 0 144 80" fill="none" xmlns="http://www.w3.org/2000/svg">
<g opacity="0.2">
<path fill-rule="evenodd" clip-rule="evenodd" d="M2.1582 71.7595V80C14.6384 80 25.0792 44.6383 48.0002 44.6383V43.6957C25.0792 43.6957 17.8346 71.5407 2.1582 71.7595Z" fill="#2BB3FF"/>
<path fill-rule="evenodd" clip-rule="evenodd" d="M2.1582 21.3058V0C14.6384 0 25.0792 35.0436 48.0002 35.0436V38.4765C23.5015 38.6739 20.7651 21.3058 2.1582 21.3058Z" fill="#2BB3FF"/>
<path fill-rule="evenodd" clip-rule="evenodd" d="M2.1582 58.6963V69.1304C16.7231 69.1304 23.5401 43.8065 48.0002 43.8065V42.8283C22.9759 42.6018 22.9759 58.4756 2.1582 58.6963Z" fill="#2BB3FF"/>
<path fill-rule="evenodd" clip-rule="evenodd" d="M2.1582 40.8696V23.9131C14.497 23.9131 20.5228 37.4895 48.0002 38.4885V41.1785C21.8896 41.1785 30.7876 40.1085 2.1582 40.8696Z" fill="#2BB3FF"/>
<path fill-rule="evenodd" clip-rule="evenodd" d="M2.1582 56.0869V43.4848C34.35 43.4938 20.2782 41.0869 48.0002 41.0869V42.8326C21.1078 42.8417 19.0593 56.0869 2.1582 56.0869Z" fill="#2BB3FF"/>
</g>
<rect width="2.1224" height="21.3043" transform="matrix(-1 0 0 1 2.15527 0)" fill="#2BB3FF"/>
<rect width="2.1224" height="16.9565" transform="matrix(-1 0 0 1 2.15527 23.9131)" fill="#2BB3FF"/>
<rect width="2.12379" height="12.6087" transform="matrix(-1 0 0 1 2.12402 43.4783)" fill="#2BB3FF"/>
<rect width="2.12379" height="10.4348" transform="matrix(-1 0 0 1 2.12402 58.6956)" fill="#2BB3FF"/>
<rect width="2.1224" height="8.26087" transform="matrix(-1 0 0 1 2.12402 71.739)" fill="#2BB3FF"/>
<path d="M48 35C48 33.3431 49.3431 32 51 32H93C94.6569 32 96 33.3431 96 35V45C96 46.6569 94.6569 48 93 48H51C49.3431 48 48 46.6569 48 45V35Z" fill="#2BB3FF"/>
<g opacity="0.2">
<path fill-rule="evenodd" clip-rule="evenodd" d="M141.852 71.7595V80C129.369 80 118.926 44.6383 96.0002 44.6383V43.6957C118.926 43.6957 126.172 71.5407 141.852 71.7595Z" fill="#2BB3FF"/>
<path fill-rule="evenodd" clip-rule="evenodd" d="M141.852 21.3058V0C129.369 0 118.926 35.0436 96.0002 35.0436V38.4765C120.504 38.6739 123.241 21.3058 141.852 21.3058Z" fill="#2BB3FF"/>
<path fill-rule="evenodd" clip-rule="evenodd" d="M141.852 58.6963V69.1304C127.284 69.1304 120.465 43.8065 96.0002 43.8065V42.8283C121.03 42.6018 121.03 58.4756 141.852 58.6963Z" fill="#2BB3FF"/>
<path fill-rule="evenodd" clip-rule="evenodd" d="M141.852 40.8696V23.9131C129.51 23.9131 123.483 37.4895 96.0002 38.4885V41.1785C122.116 41.1785 113.216 40.1085 141.852 40.8696Z" fill="#2BB3FF"/>
<path fill-rule="evenodd" clip-rule="evenodd" d="M141.852 56.0869V43.4848C109.653 43.4938 123.728 41.0869 96.0002 41.0869V42.8326C122.898 42.8417 124.947 56.0869 141.852 56.0869Z" fill="#2BB3FF"/>
</g>
<rect x="141.876" width="2.12412" height="21.3043" fill="#2BB3FF"/>
<rect x="141.816" y="23.9131" width="2.12825" height="16.9565" fill="#2BB3FF"/>
<rect x="141.869" y="43.4783" width="2.12378" height="12.6087" fill="#2BB3FF"/>
<rect x="141.869" y="58.6956" width="2.12378" height="10.4348" fill="#2BB3FF"/>
<rect x="141.869" y="71.739" width="2.12378" height="8.26087" fill="#2BB3FF"/>
</svg>

<svg xmlns="http://www.w3.org/2000/svg" width="144" height="80" fill="none" viewBox="0 0 144 80">
  <g fill="#2BB3FF" fill-rule="evenodd" clip-rule="evenodd" opacity=".2">
    <path d="M2.158 71.76V80C14.638 80 25.08 44.638 48 44.638v-.942c-22.92 0-30.165 27.845-45.842 28.064ZM2.158 21.306V0C14.638 0 25.08 35.044 48 35.044v3.433c-24.498.197-27.235-17.171-45.842-17.171Z"/>
    <path d="M2.158 58.696V69.13C16.723 69.13 23.54 43.807 48 43.807v-.979c-25.024-.226-25.024 15.648-45.842 15.868ZM2.158 40.87V23.913C14.497 23.913 20.523 37.49 48 38.49v2.69c-26.11 0-17.212-1.07-45.842-.31Z"/>
    <path d="M2.158 56.087V43.485c32.192.009 18.12-2.398 45.842-2.398v1.746c-26.892.009-28.94 13.254-45.842 13.254Z"/>
  </g>
  <path fill="#2BB3FF" d="M2.155 0H.033v21.304h2.122zM2.155 23.913H.033V40.87h2.122zM2.124 43.478H0v12.61h2.124zM2.124 58.696H0V69.13h2.124zM2.124 71.739H.002V80h2.122zM48 35a3 3 0 0 1 3-3h42a3 3 0 0 1 3 3v10a3 3 0 0 1-3 3H51a3 3 0 0 1-3-3V35Z"/>
  <g fill="#2BB3FF" fill-rule="evenodd" clip-rule="evenodd" opacity=".2">
    <path d="M141.852 71.76V80C129.369 80 118.926 44.638 96 44.638v-.942c22.926 0 30.172 27.845 45.852 28.064ZM141.852 21.306V0C129.369 0 118.926 35.044 96 35.044v3.433c24.504.197 27.241-17.171 45.852-17.171Z"/>
    <path d="M141.852 58.696V69.13c-14.568 0-21.387-25.323-45.852-25.323v-.979c25.03-.226 25.03 15.648 45.852 15.868ZM141.852 40.87V23.913C129.51 23.913 123.483 37.49 96 38.49v2.69c26.116 0 17.216-1.07 45.852-.31Z"/>
    <path d="M141.852 56.087V43.485c-32.199.009-18.124-2.398-45.852-2.398v1.746c26.898.009 28.947 13.254 45.852 13.254Z"/>
  </g>
  <path fill="#2BB3FF" d="M141.876 0H144v21.304h-2.124zM141.816 23.913h2.128v16.956h-2.128zM141.869 43.478h2.124v12.609h-2.124zM141.869 58.696h2.124v10.435h-2.124zM141.869 71.739h2.124V80h-2.124z"/>
</svg>
